Adwaita++/apps/16/torrent.svg

<svg height="16" width="16" xmlns="http://www.w3.org/2000/svg">
  <path d="m4.0625.5c-.554 0-1 .446-1 1s.446 1 1 1h3.03125l-.0625 4h-4.15625l-1.875 8v1h14.0625v-.9375l-1.75-8.0625h-4.25v3h2l-2.96875 3.0625-3.03125-3.0625h1.96875l.0625-3h1.96875v-4h3c.554 0 1-.446 1-1s-.446-1-1-1z" fill="#474747" fill-rule="evenodd"/>
</svg>

<svg xmlns="http://www.w3.org/2000/svg" width="16" height="16" version="1.1">
 <path d="m 4.0625,0.5 c -0.554,0 -1,0.446 -1,1 0,0.554 0.446,1 1,1 h 3.03125 l -0.0625,4 H 2.875 L 1,14.5 v 1 H 15.0625 V 14.5625 L 13.3125,6.5 h -4.25 v 3 h 2 L 8.09375,12.5625 5.0625,9.5 h 1.96875 l 0.0625,-3 H 9.0625 v -4 h 3 c 0.554,0 1,-0.446 1,-1 0,-0.554 -0.446,-1 -1,-1 z" style="fill:#474747;fill-rule:evenodd"/>
</svg>
